X:130
T:Pase El Agua Ma Julieta
L:1/16
M:6/8
N:Anon Spain
Z:Andy Hornby
%%TUNEURL: http://www.leeds.ac.uk/music/Info/RRTuneBk/gettune/00000d9d.html
%%ID:00000d9d
K:C
A6 c6|A6 F6|G2G2G2 G2 A4|F6 E6|
A6 c6|A6 G4 G2|A4 G2 F2 E4|D6-D6:|
|:D2D2D2 D4D2|[M:9/8]E4 D4 ^C4 D6|[M:6/8]D2D2D2 D4 D2|[M:9/8] E4 D4 ^C4 D6|
G4 G2 G4 G2|G4 G2 G4 G2|G2G2G2 G2 A4|F6 E6|
A6 c6|A6 G4 G2|A4 G2 F2 E4|D6-D6:|
